X:207
T:Freichuzt’s Quadrille, Der TS.207
T:Freischutz Quadrille,Der,aka TS.207
T:Huntsman’s Chorus,aka TS.207
M:2/4
L:1/8
Q:1/4=100
S:Thomas Sands’ MS,1810,Lincolnshire
R:quadrille
C:Carl Maria von Weber 1821
O:England;Lincolnshire
Z:vmp.Ruairidh Greig, 2011
K:D
A,”$”|D2D/E/F/G/|A2FF|EAEA|F/G/F/E/ DA,|D2 D/E/F/G/|A2FF|EAEA|DF/A/ d||
A/A/|AF/F/ Fd/d/|dA/A/ Af/f/|f2e/d/c/B/|A2FA/A/|AF/F/ Fd/d/|dA/A/ Ad/e/|ff e/d/e/f/|dfd”$”||
A|d2d/e/f/g/|a2ff|eaea|f/g/e/f/ dA|d2d/e/f/g/|a2ff|eac’b|aA/A/ Ae|
ff/f/ fe|d/e/c/d/ BB|gg/g/ gf|e/f/d/e/ cA|d2d/e/f/g/|a2ff|e{^g/}ae{g}a|d2[d’2d2]|
d2Af|d2Af|{a/}ge{a}ge|{a}ge{a}ge|d2Af|d2Af|{a}gege|d/A/^G/A/|^G,/A,/B,/C/”D.C.”|]

